packages/kaspersky-hexa-ui-icons/src/iconsSVGs/16/GoogleColor.svg

<svg width="16" height="16" viewBox="0 0 16 16" fill="none" xmlns="http://www.w3.org/2000/svg">
<path d="M15 8.15556C15 7.58001 14.9523 7.16001 14.8492 6.72446H8.14286V9.3222H12.0793C12 9.96778 11.5714 10.94 10.619 11.5933L10.6057 11.6803L12.7261 13.2901L12.873 13.3045C14.2222 12.0833 15 10.2867 15 8.15556Z" fill="#4285F4"/>
<path d="M8.14302 15C10.0716 15 11.6904 14.3778 12.873 13.3045L10.619 11.5933C10.0159 12.0055 9.20649 12.2933 8.14302 12.2933C6.25414 12.2933 4.65098 11.0722 4.07949 9.38444L3.99573 9.39141L1.79088 11.0636L1.76205 11.1422C2.93664 13.4288 5.34934 15 8.14302 15Z" fill="#34A853"/>
<path d="M4.07949 9.38444C3.9287 8.94889 3.84128 8.48219 3.84128 7.99999C3.84128 7.51774 3.92854 7.05109 4.0714 6.61554L4.06741 6.52278L1.83493 4.82369L1.76189 4.85774C1.27778 5.80664 1 6.87222 1 7.99999C1 9.12777 1.27794 10.1933 1.76205 11.1422L4.07949 9.38444Z" fill="#FBBC05"/>
<path d="M8.14302 3.70665C9.48427 3.70665 10.389 4.27442 10.9049 4.7489L12.9208 2.82C11.6827 1.69223 10.0716 1 8.14302 1C5.34934 1 2.93648 2.57109 1.76189 4.85774L4.0714 6.61554C4.65082 4.92777 6.25414 3.70665 8.14302 3.70665Z" fill="#EB4335"/>
</svg>

<svg xmlns="http://www.w3.org/2000/svg" width="16" height="16" fill="none" viewBox="0 0 16 16"><path fill="#4285f4" d="M15 8.1556c0-.5756-.0477-.9956-.1508-1.4311H8.1429v2.5977h3.9364c-.0793.6456-.5079 1.6178-1.4603 2.2711l-.0133.087 2.1204 1.6098.1469.0144C14.2222 12.0833 15 10.2867 15 8.1555"/><path fill="#34a853" d="M8.143 15c1.9286 0 3.5474-.6222 4.73-1.6955l-2.254-1.7112c-.6031.4122-1.4125.7-2.476.7-1.8889 0-3.492-1.2211-4.0635-2.9089l-.0838.007-2.2048 1.6722-.0289.0786C2.9367 13.4288 5.3493 15 8.143 15"/><path fill="#fbbc05" d="M4.0795 9.3844C3.9287 8.949 3.8413 8.4822 3.8413 8s.0872-.949.2301-1.3845l-.004-.0927L1.835 4.8237l-.073.034C1.2778 5.8067 1 6.8722 1 8s.278 2.1933.762 3.1422z"/><path fill="#eb4335" d="M8.143 3.7067c1.3413 0 2.246.5677 2.7619 1.0422L12.9208 2.82C11.6827 1.6922 10.0716 1 8.143 1 5.3493 1 2.9365 2.571 1.762 4.8577l2.3095 1.7578c.5794-1.6877 2.1827-2.9088 4.0716-2.9088"/></svg>
